!!!!SEGMENT: pl-wtm--a-41-699-96_boczkowski-jerzy--kujawiak-slonce-juz-nad-gorka.krn
!!!cenid: 19xx:37
!!!COM: Boczkowski, Jerzy
!!!COM-rismID: pe50047498
!!!CDT: 1882-1953
!!!CNT: Polish
!!!OTL: Kujawiak/Słońce już nad górką
!!!PDT:
!!!AGN: Secular
!!!YEC: Copyright 2022 Narodowy Instytut Fryderyka Chopina (https://polishscores.org)
!!!YEM: License CC-BY-4.0 (https://creativecommons.org/licenses/by/4.0)
!!!SMS-siglum: PL-Wtm
!!!SMS-shelfmark: A.41.699/96
!!!SMS-variant:
!!!SMS-altvar:
!!!SMS-shelfwork: W
!!!NIFC-rismSourceID: 1001161052
!!!NIFC-rismChildID: 1001161052
!!!NIFC-islandoraID: pl-wtm:42359
!!!URL-pdf-islandora: https://repozytorium.nifc.pl/islandora/object/pl-wtm%3A42359/datastream/PDF/view
!!!URL-scan: https://polish.musicsources.pl/pl/lokalizacje/galeria/druki-muzyczne/22233/2 @EN{Scan on Polish Music Sources Website} @PL{Skany w portalu Dziedzictwo Muzyki Polskiej w otwartym dostępie}
!!!IIIF:
!!!ONB-nifc:
!!!AIN: 2 piano 1 vox
!!!key: e
**kern	**kern	**dynam	**kern	**text
*part3	*part2	*part2	*part1	*part1
*staff3	*staff2	*	*staff1	*staff1
*I"[Piano]	*I"[Piano]	*	*I"[Voce]	*
*I'[pf]	*I'[pf]	*	*I'[V]	*
*ICklav	*ICklav	*	*ICvox	*
*Ipiano	*Ipiano	*	*Ivox	*
*clefF4	*clefG2	*	*clefG2	*
*k[f#]	*k[f#]	*	*k[f#]	*
*e:	*e:	*	*e:	*
*M3/4	*M3/4	*	*M3/4	*
=1	=1	=1	=1	=1
*	*^	*	*	*
!LO:TX:a:i:t=expressivo	!LO:TX:a:B:t=Moderato	!	!	!	!
!	!LO:TUP:b:problem:klamra łukowa	!	!	!	!
4E\ 4B	12ee/L	4g\	.	2.ryy	.
.	12ff#/	.	.	.	.
.	12gg/J	.	.	.	.
4B\ 4g	4ee/	4ee\	.	.	.
4e\ 4b	4bb/	4gg\	.	.	.
=2	=2	=2	=2	=2	=2
!	!LO:TUP:b:problem:klamra łukowa	!	!	!	!
4E\ 4B	12ee/L	4g\	.	2.ryy	.
.	12ff#/	.	.	.	.
.	12gg/J	.	.	.	.
4B\ 4g	4ee/	4ee\	.	.	.
4e\ 4b	4bb/	4gg\	.	.	.
*	*v	*v	*	*	*
=3	=3	=3	=3	=3
!	!LO:TUP:a:problem:klamra łukowa	!	!	!
4BB\	(12b\L	.	2.ryy	.
.	12cc#X\	.	.	.
.	12dd#X\J	.	.	.
4B\ 4d#X 4a	4b\	.	.	.
4B\ 4d# 4g	8cc#\L	.	.	.
.	8dd#\J)	.	.	.
=4	=4	=4	=4	=4
4E\	(8.g\L 8.ee	.	2.ryy	.
.	16f#\Jk 16dd#X	.	.	.
4B\ 4e	8g\L 8ee	.	.	.
.	8a\J 8ff#	.	.	.
4B\ 4e	8b\L 8gg	.	.	.
.	8a\J) 8ff#	.	.	.
=5	=5	=5	=5	=5
*	*^	*	*	*
!	!LO:TUP:b:problem:klamra łukowa	!	!	!	!
4E\ 4B	12ee/L	4g\	.	2.ryy	.
.	12ff#/	.	.	.	.
.	12gg/J	.	.	.	.
4B\ 4g	4ee/	4ee\	.	.	.
4e\ 4b	4bb/	4gg\	.	.	.
!!LO:LB:g=original	!	!	!	!	!
=6	=6	=6	=6	=6	=6
!	!LO:TX:a:i:t=ritardando	!	!	!	!
!	!LO:TUP:b:problem:klamra łukowa	!	!	!	!
4E\ 4B	12ee/L	4g\	.	2.r	.
.	12ff#/	.	.	.	.
.	12gg/J	.	.	.	.
4B\ 4g	4ee/	4ee\	.	.	.
4e\ 4b	4bb/	4gg\	.	.	.
*	*v	*v	*	*	*
=7	=7	=7	=7	=7
!	!LO:TX:a:i:t=poco lento	!	!	!
!	!LO:TUP:a:problem:klamra łukowa	!	!	!
4BB/	12b\L	.	2.r	.
.	12cc#X\	.	.	.
.	12dd#X\J	.	.	.
4B\ 4d#X 4a	4b\	.	.	.
4B\ 4d# 4g	8cc#\L	.	.	.
.	8dd#\J	.	.	.
=8	=8	=8	=8	=8
4e\	4g\ 4b 4ee	.	2.r	.
4E\	2ee\ 2gg 2bb 2eee	.	.	.
4EE/	.	.	.	.
=9||	=9||	=9||	=9||	=9||
*	*^	*	*	*
!	!LO:TX:a:B:t=Andantino	!	!	!	!
4EE/ 4BB	8.e/L	4G\	mf	8.e/	Słoń-
.	16f#/Jk	.	.	16f#/	-ce
4E\ 4G	8g/L	4B\	.	8g/	już
.	8e/J	.	.	8e/	nad
4E\ 4F#	8a/L	4c\	.	8a/	gór-
.	8g/J	.	.	8g/	-ką,
=10	=10	=10	=10	=10	=10
4GG/	8.e/L	4B\	.	8.e/	słoń-
.	16f#/Jk	.	.	16f#/	-ce
4E\ 4G	8g/L	4B\	.	8g/	już
.	8e/J	.	.	8e/	przy
4E\ 4F#	8a/L	4c\	.	8a/	las-
.	8g/J	.	.	8g/	-ku,
*	*v	*v	*	*	*
!!LO:LB:g=original	!	!	!	!
=11	=11	=11	=11	=11
4DD#X/	(8.f#/L	.	8.f#/	Pa-
.	16d#X/Jk	.	16d#X/	-trzę,
4BB\ 4D#X 4A	4B/	.	4B/	pa-
4BB\ 4D# 4G	8c#X/L	.	(8c#X/L	-trzę,
.	8d#/J)	.	8d#/J)	.
=12	=12	=12	=12	=12
*	*^	*	*	*
4GG/	(>8e/L	4B\	.	8e/	peł-
.	8f#/J	.	.	8f#/	-ne
!	!LO:TUP:b:problem:klamra łukowa	!	!	!LO:TUP:b:problem:klamra łukowa	!
4E\	12g/L	4B\	.	(12g/L	o-
.	12a/	.	.	12a/J)	.
.	12g/J	.	.	12g/	-czy
4G\	8f#/L	4B\	.	8f#/	bla-
.	8e/J)	.	.	8e/	-sku,
=13	=13	=13	=13	=13	=13
4EE\ 4BB	8.e/L	4G\	.	8.e/	Nie-
.	16f#/Jk	.	.	16f#/	-bo
4E\ 4G	8g/L	4B\	.	8g/	się
.	8e/J	.	.	8e/	nie-
4E\ 4F#	8a/L	4c\	.	8a/	-bie-
.	8g/J	.	.	8g/	-szczy,
=14	=14	=14	=14	=14	=14
4CC\ 4C	8.e/L	4c\	.	8.e/	zie-
.	16f#/Jk	.	.	16f#/	-mia
4AA#X\ 4E 4G	8g/L	4c#X\	.	8g/	się
.	8e/J	.	.	8e/	zie-
4AAn\ 4F#	8a/L	4cn\	.	8a/	-le-
.	8g/J	.	.	8g/	-ni,
*	*v	*v	*	*	*
!!LO:LB:g=original	!	!	!	!
=15	=15	=15	=15	=15
4BBB/	(8.f#/L	.	8.f#/	Wo-
.	16d#X/Jk	.	16d#X/	-da
4BB\ 4D#X 4A	4B/	.	4B/	słon-
4BB\ 4D# 4G	8c#X/L	.	8c#X/	-cem
.	8d#/J)	.	8d#/	się
=16	=16	=16	=16	=16
4E\	4G</ 4B< 4e	.	4e/	mie-
(8EE\L	2G</ 2B< 2e	.	2e/	-ni.
8FF#\	.	.	.	.
8GG\	.	.	.	.
8AA\J)	.	.	.	.
=17	=17	=17	=17	=17
*	*^	*	*	*
!	!LO:TX:b:i:t=rinforzando	!	!	!	!
4GG\	8.g/L	4B\	.	8.g/	Pach-
.	16a/Jk	.	.	16a/	-nie
4G\ 4B	8.g/L	4B\	.	8b/	czar-
.	.	.	.	8g/	-na
.	16a/Jk	.	.	.	.
4Fn\ 4B 4d	8cc/L	4g#X\	.	8cc\	zie-
.	8b/J	.	.	8b\	-mia,
=18	=18	=18	=18	=18	=18
4DD\	8.a/L	4c\	.	8.a/	roz-
.	16g/Jk	.	.	16g/	-lach-
4D\ 4A	8f#/L	4c\	.	8f#/	-nia-
.	8g/J	.	.	8g/	-ła
4D\ 4A	4a/	4c\	.	4a/	się,
*	*v	*v	*	*	*
=19	=19	=19	=19	=19
*^	*	*	*	*
!	!	!LO:TX:a:i:t=poco lento	!	!	!
4BBB/	4BBB\	(8.d#X/L 8.f#	.	8.f#/	Pach-
.	.	16e/Jk 16g	.	16g/	-nie,
4A/	4BB\ 4D#X	8f#/L 8a	.	8a/	pach-
.	.	8d#/J 8f#	.	8f#/	-nie
!	!	!LO:TX:a:i:t=ten.	!	!LO:TX:a:i:t=ten.	!
8G/L	4BB\ 4D#	8g/L 8b	.	8b/	wio-
8A/J	.	8f#/J) 8a	.	8a/	-sną
*v	*v	*	*	*	*
!!LO:PB:g=original	!	!	!	!
=20	=20	=20	=20	=20
!	!LO:TX:a:i:t=a tempo	!	!LO:TX:a:i:t=a tempo	!
4EE/	8.B/L 8.g	.	8.g/	aż
.	16A/Jk 16f#	.	16f#/	się
4BB\ 4E	8G/L 8e	.	8e/	krzy-
.	8A/J 8f#	.	8f#/	-czeć
4BB\ 4E	4B/ 4g	.	4g/	chce!
=21	=21	=21	=21	=21
*	*^	*	*	*
4GG/	8.e/L	4B\	.	8.e/	Z do-
.	16f#/Jk	.	.	16f#/	-łu
4E\ 4G	8g/L	4B\	.	8g/	zie-
.	8e/J	.	.	8e/	-mią
4E\ 4F#	8a/L	4c\	.	8a/	pach-
.	8g/J	.	.	8g/	-nie,
=22	=22	=22	=22	=22	=22
4CC/ 4C	8.e/L	8.c\L	.	8.e/	z gó-
.	16f#/Jk	16d#X\Jk	.	16f#/	-ry
4AA#X\ 4E 4G	8g/L	4c#X\	.	8g/	słoń-
.	8e/J	.	.	8e/	-cem
4AAn\ 4F#	8a/L	4cn\	.	8a/	grze-
.	8g/J	.	.	8g/	-je,
*	*v	*v	*	*	*
=23	=23	=23	=23	=23
4BBB/	(>8.f#/L	.	8.f#/	świa-
.	16d#X/Jk	.	16d#X/	-tem
4BB\ 4D#X 4A	4B/	.	4B/	wio-
4BB\ 4D# 4G	8c#X/L	.	8c#X/	-sna
.	8d#/J)	.	8d#/	się
=24	=24	=24	=24	=24
4E\	4G/ 4B 4e	.	4e/	śmie-
4EE/	4e\ 4g 4b 4ee	.	4e/	-je...
4D;\ 4A 4c	4f#;\ 4dd	.	4r	.
!!LO:LB:g=original	!	!	!	!
=25||	=25||	=25||	=25||	=25||
!LO:TX:a:i:t=ani motto	!LO:TX:a:B:t=Allegretto	!	!	!
4GG/ 4D	8B/L 8g	.	8g/	Szu-
.	8d/J 8a	.	8a/	-mi
4DD/ 4D	8d/L 8b	.	8b/	liść
.	8B/J 8d	.	8d/	na
4GG/ 4D	8B/L 8g	.	8g/	drze-
.	8d/J 8b	.	8b/	-wie,
=26	=26	=26	=26	=26
4DD/ 4D	8c/L 8a	.	8a/	du-
.	8d/ 8b	.	8b/	-dni
4AA/ 4D	8e/ 8cc	.	8cc\	w rze-
.	8d/ 8b	.	8b/	-ce
4DD/ 4D	[8c/ 8a	.	8a/	wo-
.	8c/J] 8g	.	8g/	-da,
=27	=27	=27	=27	=27
*	*^	*	*	*
4AA/ 4D	8f#/L	4c\	.	8f#/	A
.	8g/J	.	.	8g/	ja
4DD/ 4D	8a/L	4c\	.	8a/	so-
.	8d/J	.	.	8d/	-bie
4AA/ 4D	8f#/L	4c\	.	8f#/	i-
.	8a/J	.	.	8a/	-dę,
*	*v	*v	*	*	*
=28	=28	=28	=28	=28
4GG/ 4D	8B/L 8g	.	8g/	a
.	8d/J 8b	.	8b/	ja
4DD/ 4D	8f#/L 8dd	.	8dd\	so-
.	8e/J 8cc	.	8cc\	-bie
4FF#/ 4D	8d/L 8b	.	8b/	mło-
.	8c/J 8a	.	8a/	-da...
!!LO:LB:g=original	!	!	!	!
=29	=29	=29	=29	=29
4GG/ 4D	8B/L 8g	.	8g/	Zie-
.	8d/J 8a	.	8a/	-leń
4DD/ 4D	8d/L 8b	.	8b/	pod
.	8B/J 8d	.	8d/	no-
4GG/ 4D	8B/L 8g	.	8g/	-ga-
.	8d/J 8b	.	8b/	-mi,
=30	=30	=30	=30	=30
4DD/ 4D	8c/L 8a	.	8a/	słoń-
.	8d/ 8b	.	8b/	-ce
4AA/ 4D	8e/ 8cc	.	8cc\	ra-
.	8d/ 8b	.	8b/	-zi
4DD/ 4D	[8c/ 8a	.	8a/	w o-
.	8c/J] 8g	.	8g/	-czy,
=31	=31	=31	=31	=31
*	*^	*	*	*
4AA/ 4D	8f#/L	4c\	.	8f#/	Ma-
.	8g/J	.	.	8g/	-ło
4DD/ 4D	8a/L	4c\	.	8a/	ser-
.	8d/J	.	.	8d/	-ce
4AA/ 4D	8f#/L	4c\	.	8f#/	nie
.	8a/J	.	.	8a/	wy-
*	*v	*v	*	*	*
=32	=32	=32	=32	=32
4GG\ 4D 4G	4B/ 4d 4g	.	4g/	-sko-
2GGG/ 2GG	2g\ 2b 2dd 2gg	.	2g/	-czy.
=33||	=33||	=33||	=33||	=33||
!	!LO:TX:a:B:t=Moderato	!	!	!
4EE/	(4.B/	.	4.B/	Mo-
4BB\ 4E 4G	.	.	.	.
.	8e/L	.	8e/	-ja
4BB\ 4E 4G	8g/	.	8g/	ma-
.	8b/J)	.	8b/	-tuś,
!!LO:LB:g=original	!	!	!	!
=34	=34	=34	=34	=34
4GG/	(8a#X/L	.	8a#X/	w mieś-
.	8b/J	.	8b\	-cie
4BB\ 4E 4G	8cc/L	.	8cc\	na
.	8b/J	.	8b\	jar-
4E\ 4G 4B	8g/L	.	8g/	-mar-
.	8e/J)	.	8e/	-ku
=35	=35	=35	=35	=35
4BBB/	8.f#/L	.	8.f#/	kras-
.	16d#X/Jk	.	16d#X/	-ną
4BB\ 4D#X 4A	(4B/	.	4B/	chu-
4BB\ 4D# 4A	8c#X/L	.	(8c#X/L	-stkę
.	8d#/J)	.	8d#/J)	.
=36	=36	=36	=36	=36
4GG/	(8e/L	.	8e/	ku-
.	8f#/J	.	8f#/	-pcie
!	!LO:TUP:b:problem:klamra łukowa	!	!LO:TUP:b:problem:klamra łukowa	!
4BB\ 4E 4G	12g/L	.	(12g/L	mi
.	12a/	.	12a/J)	.
.	12g/J	.	12g/	w po-
4BB\ 4E 4G	8f#/L	.	8f#/	-dar-
.	8e/J)	.	8e/	-ku,
=37	=37	=37	=37	=37
4EE/	(4.B/	.	4.B/	Mo-
4BB\ 4E 4G	.	.	.	.
.	8e/L	.	8e/	-ja
4BB\ 4E 4G	8g/	.	8g/	ma-
.	8b/J)	.	8b/	-tuś,
=38	=38	=38	=38	=38
4GG/	(8a#X/L	.	8a#X/	je-
.	8b/J	.	8b/	-szcze
4BB\ 4E 4G	8cc/L	.	8cc\	sznur
.	8b/J	.	8b/	ko-
4E\ 4G 4B	8g/L	.	8g/	-ra-
.	8e/J)	.	8e/	-li,
!!LO:PB:g=original	!	!	!	!
=39	=39	=39	=39	=39
4BBB/	8.f#/L	.	8.f#/	By
.	16d#X/Jk	.	16d#X/	mnie
4BB\ 4D#X 4A	4B/	.	4B/	chło-
4BB\ 4D# 4A	8d#/L	.	8d#/	-pcy
.	8e/J	.	8e/	ko-
=40	=40	=40	=40	=40
4EE\ 4E	4e/	.	4e/	-cha-
4E\ 4G 4B	2e:/ 2g: 2b: 2ee:	.	2e/	-li!
4EEE/ 4EE	.	.	.	.
=41||	=41||	=41||	=41||	=41||
!	!LO:TX:a:B:t=Andantino	!	!	!
4EE\	4G<^>/ 4e	.	4e/	Hej,
!	!LO:TX:b:i:t=ben marcato	!	!	!
4BB\	8G</L 8e	.	8e/	i-
.	8F#</J 8d#X	.	8d#X/	-dzie
4BB\	8G</L 8e	.	8e/	Ja-
.	8F#</J 8d#	.	8d#/	-sio,
=42	=42	=42	=42	=42
4EE\	8G</L 8e	.	8e/	i-
.	8F#</J 8d#X	.	8d#X/	-dzie
4BB\	8G</L 8e	.	8e/	do
.	8B</J 8g	.	8g/	mnie
4BB\	8A</L 8f#	.	8f#/	mie-
.	8G</J 8e	.	8e/	-szą,
=43	=43	=43	=43	=43
4BBB\	4A<^>/ 4f#	.	4f#/	Hej,
4BB\	8A</L 8f#	.	8f#/	wró-
.	8G#X</J 8e#X	.	8e#X/	-ble
4BB\	8A</L 8f#	.	8f#/	wi-
.	8G#</J 8e#	.	8e#/	-dzą,
!!LO:LB:g=original	!	!	!	!
=44	=44	=44	=44	=44
4BBB\	8A</L 8f#	.	8f#/	a-
.	8G#X</J 8e#X	.	8e#X/	-le
4BB\	8A</L 8f#	.	8f#/	nie
.	8c</J 8a	.	8a/	po-
4BB\	8B</L 8g	.	8g/	-wie-
.	8A</J 8f#	.	8f#/	-dzą...
=45	=45	=45	=45	=45
4EE\	4G<^>/ 4e	.	4e/	Na
4BB\	8G</L 8e	.	8e/	har-
.	8F#</J 8d	.	8d#X/	-mo-
4BB\	8G</L 8e	.	8e/	-nij-
.	8F#</J 8d	.	8d#/	-ce
=46	=46	=46	=46	=46
4EE\	8G</L 8e	.	8e/	wzy-
.	8F#</J 8d#X	.	8d#X/	-wa
4BB\	8G</L 8e	.	8e/	mnie
.	8B</J 8g	.	8g/	Ja-
4BB\	8A</L 8f#	.	8f#/	-sień-
.	8G</J 8e	.	8e/	-ko
=47	=47	=47	=47	=47
4BBB\	8.f#/L	.	8.f#/	Naj-
.	16d#X/Jk	.	16d#X/	-mi-
4BB\ 4D#X 4A	4B/	.	4B/	-lej-
4BB\ 4D# 4A	8c#X/L	.	8c#X/	-szą
.	8d#/J	.	8d#/	pio-
=48	=48	=48	=48	=48
4EE\ 4E	(8G/L 8B 8e	<	4e/	-sen-
.	8d#X/J	.	.	.
4E\ 4G 4B	8e/L	.	2e/	-ką.
.	8f#/J	.	.	.
4G\ 4B 4e	8g/L	.	.	.
.	8a/J)	[[	.	.
!!LO:LB:g=original	!	!	!	!
=49	=49	=49	=49	=49
!	!LO:TX:a:i:t=con brio	!	!	!
4GGG/ 4GG	8.g/L 8.b	f	8.b/	Tak
.	16g/Jk 16b	.	16b/	jak
4D\ 4G 4B	2d/ 2g	.	2g/	las
4D\ 4G 4B	.	.	.	.
=50	=50	=50	=50	=50
*	*^	*	*	*
4BB\	8g/L	2d\	<	8g/	za-
.	8b/J	.	.	8b\	-szu-
4D\ 4B	4dd/	.	[ >	4dd\	-mia-
4D\ 4G#X 4B	8cc/L	4fn\	]]	8cc\	-ło
.	8b/J	.	.	8b\	mi,
=51	=51	=51	=51	=51	=51
!	!	!	!LO:DY:b:t=meno forte	!	!
4DD/	8.a^/L	4c\	f	8.a/	Tak
.	16a/Jk	.	.	16a/	jak
4D\ 4A	2f#/	2c\	.	2f#/	młyn
4D\ 4A	.	.	.	.	.
=52	=52	=52	=52	=52	=52
4BBB/	8f#/L	4d#X\	<	8f#/	za-
.	8a/J	.	.	8a/	-hu-
4BB\ 4D#X 4A	4cc/	4f#\	[ >	4cc\	-cza-
4BB\ 4D# 4A	8d#/L 8b	4ryy	]]	8b/	-ło
.	8c/J 8a	.	.	8a/	mi,
*	*v	*v	*	*	*
=53	=53	=53	=53	=53
!	!LO:TX:a:i:t=poco lento	!	!	!
4EE/	8.e^>/L 8.g	]	8.g/	Tak
.	16e/Jk 16g	.	16g/	jak
4BB\ 4E 4G	2B/ 2e	.	2e/	ptak
4BB\ 4E 4G	.	.	.	.
!!LO:LB:g=original	!	!	!	!
=54	=54	=54	=54	=54
*	*^	*	*	*
4GG/	8e/L	4B\	<	8e/	zaś-
.	8g/J	.	.	8g/	-pie-
4BB\ 4G	4b/	4e\	[ >	4b\	-wa-
4BB\ 4G	8a/L	4e\	]]	8a/	-ło
.	8g/J	.	.	8g/	mi
*	*v	*v	*	*	*
=55	=55	=55	=55	=55
!	!LO:TX:b:i:t=rallentando	!	!	!
4BBB/	(8d#X/L 8b	]	8b\	ku-
.	8e/J 8cc	.	8cc\	-ja-
4BB\ 4D#X 4A	8d#/L 8b	.	(8b/L	-wia-
.	8c/J 8a	.	8a/J)	.
4BB\ 4D# 4A	8B/L 8g	.	8g/	-czkiem
.	8A/J) 8f#	.	8f#/	ja-
=56	=56	=56	=56	=56
4EE/	4e/	.	4e/	-sio-
4BB/ 4E	8G/L 8e	.	4e/	-wym!
.	8B/J	.	.	.
!LO:TX:a:i:t=ritard.	!LO:TX:a:i:t=ritard.	!	!	!
4BB;\ 4D#X 4A	8c#X/L	.	4r	.
.	8d#X;/J	.	.	.
=57||	=57||	=57||	=57||	=57||
*	*^	*	*	*
!	!LO:TX:b:i:t=con espressione	!	!	!	!
!	!LO:TX:a:B:t=Moderato	!	!	!	!
!	!LO:TUP:b:problem:klamra łukowa	!	!	!LO:TUP:b:problem:klamra łukowa	!
4EE/ 4BB	12e/L	4G\	.	(12e/L	Ku-
.	12f#/	.	.	12f#/J)	.
.	12g/J	.	.	12g/	-ja-
4BB\ 4G	4e/	4e\	.	4e/	-wia-
4E\ 4B	4b/	4g\	.	4b/	-czek,
=58	=58	=58	=58	=58	=58
!	!LO:TUP:b:problem:klamra łukowa	!	!	!LO:TUP:b:problem:klamra łukowa	!
4EE/ 4BB	12e/L	4G\	.	(12e/L	ku-
.	12f#/	.	.	12f#/J)	.
.	12g/J	.	.	12g/	-ja-
4BB\ 4G	4e/	4e\	.	4e/	-wia-
4E\ 4B	4b/	4g\	.	4b/	-czek,
*	*v	*v	*	*	*
!!LO:PB:g=original	!	!	!	!
=59	=59	=59	=59	=59
!	!LO:TUP:b:problem:klamra łukowa	!	!LO:TUP:b:problem:klamra łukowa	!
4BBB/	12B/L	.	(12B/L	To
.	12c#X/	.	12c#X/J)	.
.	12d#X/J	.	12d#X/	się
4BB\ 4D#X 4A	(4B/	.	4B/	śmie-
4BB\ 4D# 4G	8c#/L	.	8c#/	-je,
.	8d#/J)	.	8d#/	to
=60	=60	=60	=60	=60
4EE\	(>8.G</L 8.e	.	8.e/	smę-
.	16F#</Jk 16d	.	16d#X/	-ci
4BB\ 4E	8G</L 8e	.	8e/	się
.	8A</J 8f#	.	8f#/	i
4BB\ 4E	8B</L 8g	.	8g/	pła-
.	8A</J) 8f#	.	8f#/	-cze...
=61	=61	=61	=61	=61
*	*^	*	*	*
!	!LO:TUP:b:problem:klamra łukowa	!	!	!LO:TUP:b:problem:klamra łukowa	!
4EE\ 4BB	12e/L	4G\	.	(12e/L	Roz-
.	12f#/	.	.	12f#/J)	.
.	12g/J	.	.	12g/	-hu-
4BB\ 4G	4e/	4e\	.	4e/	-ka-
4E\ 4B	4b/	4g\	.	4b/	-ny,
=62	=62	=62	=62	=62	=62
!	!LO:TUP:b:problem:klamra łukowa	!	!	!LO:TUP:b:problem:klamra łukowa	!
4EE\ 4BB	12e/L	4G\	.	(12e/L	roz-
.	12f#/	.	.	12f#/J)	.
.	12g/J	.	.	12g/	-śpie-
4BB\ 4G	4e/	4e\	.	4e/	-wa-
4E\ 4B	4b/	4g\	.	4b/	-ny
*	*v	*v	*	*	*
=63	=63	=63	=63	=63
!	!LO:TUP:b:problem:klamra łukowa	!	!LO:TUP:b:problem:klamra łukowa	!
4BBB/	12B/L	.	(12B/L	Ku-
.	12c#X/	.	12c#X/J)	.
.	12d#X/J	.	12d#X/	-ja-
4BB\ 4D#X 4A	(4B/	.	4B/	-wia-
4BB\ 4D# 4G	8c#/L	.	8c#/	-czek
.	8d#/J)	.	8d#/	ko-
!!LO:LB:g=original	!	!	!	!
=64	=64	=64	=64	=64
4EE/ 4E	8.G/L 8.B 8.e	<	4e/	-cha-
.	16d#X/Jk	.	.	.
4E\ 4G 4B	8e/L	.	2e/	-ny!
.	8f#/	.	.	.
4G\ 4B 4e	8g/	.	.	.
.	8a/J	[[	.	.
=65||	=65||	=65||	=65||	=65||
4GGG/ 4GG	8.g^>/L 8.b	f	8.b/	Za-
!	!LO:TX:a:i:t=con brio	!	!	!
.	16g/Jk 16b	.	16b/	-śmiał
4D\ 4G 4B	2d/ 2g	.	2g/	się
4D\ 4G 4B	.	.	.	.
=66	=66	=66	=66	=66
*	*^	*	*	*
!	!	!LO:N:vis=2	!	!	!
4BB/	8g/L	4d\	<	8g/	i
.	8b/J	.	.	8b\	por-
4D\ 4B	4dd/	4b\	[ >	4dd\	-wa-
4D\ 4G#X 4B	8cc/L	4fn\	]]	8cc\	-ło
.	8b/J	.	.	8b\	mnie,
*	*v	*v	*	*	*
=67	=67	=67	=67	=67
!	!LO:TX:a:i:t=poco lento	!	!	!
4DD/	(8.c/L 8.a	]	8.a/	spła-
.	16c/Jk 16a	.	16a/	-kał
4D\ 4A	2c/) 2f#	.	2f#/	się
4D\ 4A	.	.	.	.
=68	=68	=68	=68	=68
*	*^	*	*	*
4BBB/	(8f#/L	4d#X\	<	8f#/	o-
.	8a/J	.	.	8a/	-pę-
4D#X\ 4A	4cc/	4f#\	[ >	4cc\	-ta-
4D#\ 4A	8b/L	8d#\L	]]	8b\	-ło
.	8a/J)	8c\J	.	8a/	mnie,
*	*v	*v	*	*	*
!!LO:LB:g=original	!	!	!	!
=69	=69	=69	=69	=69
!	!LO:TX:a:i:t=a tempo	!	!	!
4EE/	(8.e/L 8.g	] sf	8.g/	Z wszy-
.	16e/Jk 16g	.	16g/	-stkich
4E\ 4G	2B/) 2e	.	2e/	stron
4E\ 4G	.	.	.	.
=70	=70	=70	=70	=70
*	*^	*	*	*
4GG/	(8e/L	4B\	<	8e/	o-
.	8g/J	.	.	8g/	-mo-
4BB\ 4G	4b/	4e\	[ >	4b/	-ta-
4BB\ 4G	8a/L	4e\	]]	8a/	-ło
.	8g/J)	.	.	8g/	mnie,
*	*v	*v	*	*	*
=71	=71	=71	=71	=71
!	!LO:TX:a:i:t=rallentando	!	!	!
4BBB/	(8d#X/L 8b	]	8b\	U-
.	8e/J 8cc	.	8cc\	-de-
4BB\ 4D#X 4A	8d#/L 8b	.	8b\	-rzy-
.	8c/J 8a	.	8a/	-ło
4BB\ 4D# 4A	8B/L 8g	.	8g/	mi
.	8A/J) 8f#	.	8f#/	do
=72	=72	=72	=72	=72
4E\	4G/ 4B 4e	.	4e/	gło-
4EE/	4e\ 4g 4b 4ee	.	4e/	-wy!
4FF#/ 4F#	4c;/ 4a 4dd	.	4r	.
=73||	=73||	=73||	=73||	=73||
*	*^	*	*	*
!	!LO:TX:b:i:t=con grazia	!	!	!	!
!	!LO:TX:a:B:t=Allegretto	!	!	!	!
4GG/ 4G	4b^/	4d\	.	4b\	Hej,
4D\ 4G 4B	8b/L	4d\	.	8b\	mój
.	8g/J	.	.	8g/	Ja-
4D\ 4G 4B	8b/L	4d\	.	8b\	-sień-
.	8dd/J	.	.	8dd\	-ku,
!!LO:LB:g=original	!	!	!	!	!
=74	=74	=74	=74	=74	=74
4AA/	8.cc/	4f#\	.	8.cc\	mój
.	16cc/	.	.	16cc\	ty
!	!	!	!	!LO:N:vis=8	!
4D\ 4F# 4c	4a/	4f#\	.	4a/	mi-
!	!	!	!	!LO:N:vis=8	!
4D\ 4F# 4c	4f#/	4d\	.	4f#/	-ły,
=75	=75	=75	=75	=75	=75
4DD/	4cc^/	4f#\	.	8cc\	aż
.	.	.	.	8cc\	się
4D\ 4F# 4c	8cc/L	4f#\	.	8cc\	w po-
.	8a/J	.	.	8a/	-lu
4D\ 4F# 4c	8cc/L	4f#\	.	8cc\	kło-
.	8ee/J	.	.	8ee\	-sy
=76	=76	=76	=76	=76	=76
4GG/	8.dd/L	4b\	.	8.dd\	za-
.	16dd/Jk	.	.	16dd\	-dzi-
4D\ 4G 4B	4b/	4g\	.	4b\	-wi-
4D\ 4G 4B	4g/	4d\	.	4g/	-ły,
=77	=77	=77	=77	=77	=77
4GG/	4b^/	4d\	.	4b\	Aż
4D\ 4G 4B	8b/L	4d\	.	8b\	się
.	8g/J	.	.	8g/	na
4D\ 4G 4B	8b/L	4d\	.	8b\	nie-
.	8dd/J	.	.	8dd\	-bie
=78	=78	=78	=78	=78	=78
4AA/	8.cc/L	4f#\	.	8.cc\	ptak
.	16cc/Jk	.	.	16cc\	dzi-
4D\ 4F# 4c	4a/	4f#\	.	4a/	-wu-
4D\ 4F# 4c	4f#/	4d\	.	4f#/	-je,
!!LO:PB:g=original	!	!	!	!	!
=79	=79	=79	=79	=79	=79
4DD/	8d^/L	8d\L	.	8d/	Jak
.	8f#/J	8f#\J	.	8f#/	o-
4D\ 4F# 4c	8a/L	8a\L	.	8a/	-kru-
.	8cc/J	8f#\J	.	8cc\	-tnie
4D\ 4F# 4c	8b/L	4d\	.	8b/	cię
.	8a/J	.	.	8a/	mi-
*	*v	*v	*	*	*
=80	=80	=80	=80	=80
4GG\ 4G	4g/	.	4g/	-łu-
4G\ 4B 4d	2g/	.	2g/	-ję...
4G\ 4B 4d	.	.	.	.
=81	=81	=81	=81	=81
*	*^	*	*	*
4FF#/	4d^/	4d\	.	4d/	Puść,
4D\ 4F# 4c	4cc/	4f#\	.	4cc\	puść,
4D\ 4F# 4c	8b/L	4d\	.	8b\	Ja-
.	8a/J	.	.	8a/	-siu,
=82	=82	=82	=82	=82	=82
4GG/	8g^/L	4B\	.	8g/	je-
.	8g/J	.	.	8g/	-szcze
4D\ 4G	8d/L	4B\	.	8d/	słon-
.	8g/J	.	.	8g/	-ko
4D\ 4G 4B	8b/L	4d\	.	8b/	pa-
.	8g/J	.	.	8g/	-trzy,
!!LO:LB:g=original	!	!	!	!	!
=83	=83	=83	=83	=83	=83
4DD/	8f#^/L	4c\	.	8f#/	Je-
.	8f#/J	.	.	8f#/	-szcze
4D\ 4A	8d/L	4c\	.	8d/	kto
.	8f#/J	.	.	8f#/	tu
4D\ 4A	8a/L	4c\	.	8a/	przej-
.	8f#/J	.	.	8f#/	-dzie,
*	*v	*v	*	*	*
=84	=84	=84	=84	=84
!	!LO:TX:a:i:t=rallentando	!	!	!
4GG/	8B:\L 8d: 8g:	.	8g/	je-
.	8gg\J	.	8gg\	-szcze
4G\ 4B 4d	8ff#\L	.	8ff#\	kto
.	8ee\J	.	8ee\	zo-
4B\ 4d 4g	8dd\L	.	8dd\	-ba-
.	8b\J	.	8b\	-czy!
=85	=85	=85	=85	=85
*	*^	*	*	*
!	!LO:TX:a:i:t=a tempo	!	!	!	!
4FF#/	4d^/	4d\	.	4d/	Puść,
4D\ 4F# 4c	4cc/	4e\	.	4cc\	puść,
4D\ 4F# 4c	8b/L	8d\L	.	8b\	Ja-
.	8a/J	8c\J	.	8a/	-siu,
=86	=86	=86	=86	=86	=86
4GG/	8g^/L	4B\	.	8g/	je-
.	8g/J	.	.	8g/	-szcze
4D\ 4G	8d/L	4B\	.	8d/	słon-
.	8g/J	.	.	8g/	-ko
4D\ 4G 4B	8b/L	4d\	.	8b/	świe-
.	8g/J	.	.	8g/	-ci:
!!LO:LB:g=original	!	!	!	!	!
=87	=87	=87	=87	=87	=87
4DD/	8f#/L	4c\	.	8f#/	Do
.	8f#/J	.	.	8f#/	wie-
4D\ 4A	8d/L	4c\	.	8d/	-czo-
.	8f#/J	.	.	8f#/	-ra
4D\ 4A	8a/L	4c\	.	8a/	prę-
.	8f#/J	.	.	8f#/	-dko
*	*v	*v	*	*	*
=88	=88	=88	=88	=88
4GG\ 4G	4B/ 4d 4g	.	4g/	zle-
4DD/ 4E	4B/ 4d 4g	.	4g/	-ci!
4BBB/ 4BB	4A;/ 4d#X 4f#	.	4r	.
=89||	=89||	=89||	=89||	=89||
*	*^	*	*	*
!	!LO:TX:a:B:t=Andantino	!	!	!	!
4EE/ 4BB	(8.e/L	4G\	mf	8.e/	Słoń-
.	16f#/Jk	.	.	16f#/	-ce
4E\ 4G	8g/L	4B\	.	8g/	już
.	8e/J	.	.	8e/	za
4E\ 4F#	8a/L	4c\	.	8a/	gór-
.	8g/J)	.	.	8g/	-ką,
=90	=90	=90	=90	=90	=90
4GG/	(8.e/L	4B\	.	8.e/	słoń-
.	16f#/Jk	.	.	16f#/	-ce
4E\ 4G	8g/L	4B\	.	8g/	już
.	8e/J	.	.	8e/	za
4E\ 4F#	8a/L	4c\	.	8a/	rze-
.	8g/J)	.	.	8g/	-ką,
*	*v	*v	*	*	*
!!LO:LB:g=original	!	!	!	!
=91	=91	=91	=91	=91
4DD#X/	(8.f#/L	.	8.f#/	I-
.	16d#X/Jk	.	16d#X/	-dzie
4BB\ 4D#X 4A	4B/	.	4B/	noc-
4BB\ 4D# 4G	8c#X/L	.	(8c#X/L	-ka,
.	8d#/J)	.	8d#/J)	.
=92	=92	=92	=92	=92
*	*^	*	*	*
4GG/	(8e/L	4B\	.	8e/	Już
.	8f#/J	.	.	8f#/	jest
!	!LO:TUP:b:problem:klamra łukowa	!	!	!LO:TUP:b:problem:klamra łukowa	!
4E\	12g/L	4B\	.	(12g/L	nie-
.	12a/	.	.	12a/J)	.
!	!	!	!	!LO:N:vis=4	!
.	12g/J	.	.	12g/	-da-
4G\	8f#/L	4B\	.	8f#/	-le-
.	8e/J)	.	.	8e/	-ko...
=93	=93	=93	=93	=93	=93
4EE/ 4BB	(8.e/L	4G\	.	8.e/	Już
.	16f#/Jk	.	.	16f#/	jest
8E\L	8g/L	4B\	.	8g/	za
8G\J	8e/J	.	.	8e/	cha-
4E\ 4F# 4A	8a/L	4c\	.	8a/	-łu-
.	8g/J)	.	.	8g/	-pą,
=94	=94	=94	=94	=94	=94
4CC/ 4C	(8.e/L	4c\	.	8.e/	już
.	16f#/Jk	.	.	16f#/	jest
4AA#X\ 4E 4G	8g/L	4c#X\	.	8g/	za
.	8e/J	.	.	8e/	sto-
4AAn\ 4F#	8a/L	4cn\	.	8a/	-do-
.	8g/J)	.	.	8g/	-łą,
*	*v	*v	*	*	*
!!LO:PB:g=original	!	!	!	!
=95	=95	=95	=95	=95
4BBB/	(>8.f#/L	.	8.f#/	Pa-
.	16d#X/Jk	.	16d#X/	-chnie
4BB\ 4D#X 4A	4B/	.	4B/	noc-
4BB\ 4D# 4G	8c#X/L	.	8c#X/	-ką
.	8d#/J)	.	8d#/	wo-
=96	=96	=96	=96	=96
4E\	4G</ 4B< 4e	.	4e/	-ko-
8EE\L	2G</ 2B< 2e	.	2e/	-ło...
8FF#\	.	.	.	.
8GG\	.	.	.	.
8AA\J	.	.	.	.
=97	=97	=97	=97	=97
*	*^	*	*	*
4GG\	(8.g/L	4B\	sf	8.g/	Słoń-
.	16a/Jk	.	.	16a/	-ce
8G\L	8b/L	4d\	.	8b/	już
8B\J	8g/J	.	.	8g/	za
4Fn\ 4B 4d	8cc/L	4g#X\	.	8cc\	rze-
.	8b/J)	.	.	8b\	-ką,
=98	=98	=98	=98	=98	=98
4DD/	8.a/L	4c\	.	8.a/	a
.	16g/Jk	.	.	16g/	nad
4D\ 4A	8f#/L	4c\	.	8f#/	rze-
.	8g/J	.	.	8g/	-ką
4F#\ 4A	4a/	4c\	.	4a/	mgła,
*	*v	*v	*	*	*
=99	=99	=99	=99	=99
*^	*	*	*	*
!	!	!LO:TX:a:i:t=poco lento	!	!	!
4BBB/	4BBB\	8.d#X/L 8.f#	p	8.f#/	A
.	.	16e/Jk 16g	.	16g/	tak
4A/	4BB\ 4D#X	8f#/L 8a	.	8a/	ktoś
.	.	8d#/J 8f#	.	8f#/	da-
!	!	!LO:TX:a:i:t=ten.	!	!LO:TX:a:i:t=ten.	!
8G/L	4BB\ 4D#	8g/L 8b	.	8b/	-le-
8A/J	.	8f#/J 8a	.	8a/	-ko
*v	*v	*	*	*	*
!!LO:LB:g=original	!	!	!	!
=100	=100	=100	=100	=100
!	!LO:TX:a:i:t=a tempo	!	!LO:TX:a:i:t=a tempo	!
4EE/	8.B/L 8.g	.	8.g/	ku-
.	16A/Jk 16f#	.	16f#/	-ja-
4BB\ 4E	8G/L 8e	.	8e/	-wiacz-
.	8A/J 8f#	.	8f#/	-ka
4BB\ 4E	4B/ 4g	.	4g/	gra.
=101	=101	=101	=101	=101
*	*^	*	*	*
4GG/	(8.e/L	4B\	mf	8.e/	I-
.	16f#/Jk	.	.	16f#/	-dzie,
4E\ 4G	8g/L	4B\	.	8g/	i-
.	8e/J	.	.	8e/	-dzie
4E\ 4F#	8a/L	4c\	.	8a/	Ja-
.	8g/J)	.	.	8g/	-sio,
=102	=102	=102	=102	=102	=102
4CC/ 4C	(8.e/L	8.c\L	.	8.e/	i-
.	16f#/Jk	16d#X\Jk	.	16f#/	-dzie
4AA#X\ 4E 4G	8g/L	4c#X\	.	8g/	mój
.	8e/J	.	.	8e/	Ja-
4AAn/ 4F#	8a/L	4cn\	.	8a/	-sień-
.	8g/J)	.	.	8g/	-ko,
*	*v	*v	*	*	*
=103	=103	=103	=103	=103
4BBB/	(>8.f#/L	.	8.f#/	wo-
.	16d#X/Jk	.	16d#X/	-ła
4BB\ 4D 4A	4B/	.	4B/	wo-
4BB\ 4D 4G	8c#X/L	.	8c#X/	-ła
.	8d#/J)	.	8d#/	pio-
=104	=104	=104	=104	=104
4EE\ 4E	4e/	.	4e/	-sen-
2E\ 2G 2B	2e/ 2g 2b 2ee	.	4e/	-ką.
.	.	.	4r	.
=105||	=105||	=105||	=105||	=105||
*	*^	*	*	*
!	!LO:TX:b:i:t=espressivo.	!	!	!LO:TUP:b:problem:klamra łukowa	!
!	!LO:TUP:b:problem:klamra łukowa	!	!	!	!
4EE/ 4BB	12e/L	4G\	.	(12e/L	Ku-
.	12f#/	.	.	12f#/J)	.
.	12g/J	.	.	12g/	-ja-
4BB\ 4G	4e/	4e\	.	4e/	-wia-
4E\ 4B	4b/	4g\	.	4b/	-czek,
=106	=106	=106	=106	=106	=106
!	!LO:TUP:b:problem:klamra łukowa	!	!	!LO:TUP:b:problem:klamra łukowa	!
4EE/ 4BB	12e/L	4G\	.	(12e/L	ku-
.	12f#/	.	.	12f#/J)	.
.	12g/J	.	.	12g/	-ja-
4BB\ 4G	4e/	4e\	.	4e/	-wia-
4E\ 4B	4b/	4g\	.	4b/	-czek,
*	*v	*v	*	*	*
=107	=107	=107	=107	=107
!	!LO:TUP:b:problem:klamra łukowa	!	!LO:TUP:b:problem:klamra łukowa	!
4BBB/	(>12B/L	.	(>(12B/L	To
.	12c#X/	.	12c#X/J)	.
.	12d#X/J	.	12d#X/	się
4BB\ 4D#X 4A	4B/	.	4B/	śmie-
4BB\ 4D# 4G	8c#/L	.	8c#/	-je,
.	8d#/J)	.	8d#/)	to
=108	=108	=108	=108	=108
4EE\	(>8.G</L 8.e	.	8.e/	smę-
.	16F#</Jk 16d#X	.	(>16d#X/	-ci
4BB\ 4E	8G</L 8e	.	8e/	się
.	8A</J 8f#	.	8f#/	i
4BB\ 4E	8B</L 8g	.	8g/	pła-
.	8A</J) 8f#	.	8f#/)	-cze,
!!LO:LB:g=original	!	!	!	!
=109	=109	=109	=109	=109
*	*^	*	*	*
!	!LO:TUP:b:problem:klamra łukowa	!	!	!LO:TUP:b:problem:klamra łukowa	!
4EE\ 4BB	12e/L	4G\	.	(12e/L	Roz-
.	12f#/	.	.	12f#/J)	.
.	12g/J	.	.	12g/	-hu-
4BB\ 4G	4e/	4e\	.	4e/	-ka-
4E\ 4B	4b/	4g\	.	4b/	-ny,
=110	=110	=110	=110	=110	=110
!	!LO:TX:a:i:t=ritardando	!	!	!LO:TUP:b:problem:klamra łukowa	!
!	!LO:TUP:b:problem:klamra łukowa	!	!	!	!
4EE/ 4BB	12e/L	4G\	.	(12e/L	roz-
.	12f#/	.	.	12f#/J)	.
.	12g/J	.	.	12g/	-śpie-
4BB\ 4G	4e/	4e\	.	4e/	-wa-
!	!LO:TX:a:i:t=ten.	!	!	!	!
4E\ 4B	4b/	4g\	.	4b/	-ny,
*	*v	*v	*	*	*
=111	=111	=111	=111	=111
!	!LO:TX:a:i:t=allargando	!	!LO:TUP:b:problem:klamra łukowa	!
!	!LO:TUP:b:problem:klamra łukowa	!	!	!
4BBB/	12B/L	.	(12B/L	ku-
.	12c#X/	.	12c#X/J)	.
.	12d#X/J	.	12d#X/	-ja-
4BB\ 4D#X 4A	4B/	.	4B/	-wia-
4BB\ 4D# 4G	8c#/L	.	8c#/	-czek
.	8d#/J	.	8d#/	ko-
=112	=112	=112	=112	=112
4E\	4G/ 4B 4e	.	4e/	-cha-
2EE/ 2BB 2E	2e/ 2g 2b 2ee	.	2e/	-ny.
==	==	==	==	==
*-	*-	*-	*-	*-
!!!system-decoration: s1{(s2,s3)}
!!!RDF**kern: > = above
!!!RDF**kern: < = below
!!!ENC: Berenika Jozajtis
!!!END: 2023-08-27
!!!ENC: Jan Barakat
!!!END: 2023-09-24
